icons/radio-uncheck.svg

<svg xmlns="http://www.w3.org/2000/svg" width="96" height="96"><path d="M4 48c0-11.7 4.6-22.9 12.9-31.1C25.1 8.6 36.3 4 48 4c11.7 0 22.9 4.6 31.1 12.9C87.4 25.1 92 36.3 92 48c0 11.7-4.6 22.9-12.9 31.1C70.9 87.4 59.7 92 48 92c-11.7 0-22.9-4.6-31.1-12.9C8.6 70.9 4 59.7 4 48zm8 0c0-9.5 3.8-18.7 10.5-25.5C29.3 15.8 38.5 12 48 12s18.7 3.8 25.5 10.5C80.2 29.3 84 38.5 84 48s-3.8 18.7-10.5 25.5C66.7 80.2 57.5 84 48 84s-18.7-3.8-25.5-10.5C15.8 66.7 12 57.5 12 48z" fill-rule="evenodd" fill="#454545"/></svg>

<?xml version="1.0" standalone="no"?><!-- Generator: Gravit.io --><svg xmlns="http://www.w3.org/2000/svg" xmlns:xlink="http://www.w3.org/1999/xlink" width="96" height="96"><path d=" M 4 48 C 4 36.3 8.6 25.1 16.9 16.9 C 25.1 8.6 36.3 4 48 4 C 59.7 4 70.9 8.6 79.1 16.9 C 87.4 25.1 92 36.3 92 48 C 92 59.7 87.4 70.9 79.1 79.1 C 70.9 87.4 59.7 92 48 92 C 36.3 92 25.1 87.4 16.9 79.1 C 8.6 70.9 4 59.7 4 48 Z  M 12 48 C 12 38.5 15.8 29.3 22.5 22.5 C 29.3 15.8 38.5 12 48 12 C 57.5 12 66.7 15.8 73.5 22.5 C 80.2 29.3 84 38.5 84 48 C 84 57.5 80.2 66.7 73.5 73.5 C 66.7 80.2 57.5 84 48 84 C 38.5 84 29.3 80.2 22.5 73.5 C 15.8 66.7 12 57.5 12 48 Z " fill-rule="evenodd" fill="#454545" stroke="none"/><mask id="_mask_uv2bKwck12G1PlgOZE5tnGrxpolQ31SI"><path d=" M 4 48 C 4 36.3 8.6 25.1 16.9 16.9 C 25.1 8.6 36.3 4 48 4 C 59.7 4 70.9 8.6 79.1 16.9 C 87.4 25.1 92 36.3 92 48 C 92 59.7 87.4 70.9 79.1 79.1 C 70.9 87.4 59.7 92 48 92 C 36.3 92 25.1 87.4 16.9 79.1 C 8.6 70.9 4 59.7 4 48 Z  M 12 48 C 12 38.5 15.8 29.3 22.5 22.5 C 29.3 15.8 38.5 12 48 12 C 57.5 12 66.7 15.8 73.5 22.5 C 80.2 29.3 84 38.5 84 48 C 84 57.5 80.2 66.7 73.5 73.5 C 66.7 80.2 57.5 84 48 84 C 38.5 84 29.3 80.2 22.5 73.5 C 15.8 66.7 12 57.5 12 48 Z " fill-rule="evenodd" fill="white" stroke="none"/></mask><path d=" M 4 48 C 4 36.3 8.6 25.1 16.9 16.9 C 25.1 8.6 36.3 4 48 4 C 59.7 4 70.9 8.6 79.1 16.9 C 87.4 25.1 92 36.3 92 48 C 92 59.7 87.4 70.9 79.1 79.1 C 70.9 87.4 59.7 92 48 92 C 36.3 92 25.1 87.4 16.9 79.1 C 8.6 70.9 4 59.7 4 48 Z  M 12 48 C 12 38.5 15.8 29.3 22.5 22.5 C 29.3 15.8 38.5 12 48 12 C 57.5 12 66.7 15.8 73.5 22.5 C 80.2 29.3 84 38.5 84 48 C 84 57.5 80.2 66.7 73.5 73.5 C 66.7 80.2 57.5 84 48 84 C 38.5 84 29.3 80.2 22.5 73.5 C 15.8 66.7 12 57.5 12 48 Z " fill-rule="evenodd" fill="none" stroke="none" stroke-width="16" mask="url(#_mask_uv2bKwck12G1PlgOZE5tnGrxpolQ31SI)"/></svg>
